X: 108
T: The Ten Penny Bit
C:Jig
R:jig
M:6/8
K:Ador
"Am" eAA eAA |"G" BAB GBd |"Am" eAA eAA |"G" def gfg |
"Am" eAA eAA |"G" BAB GBd | "Em"ede  ged|"G" BAG "Am" A3 :|
|:"Am" eaa aga |"G" bab ged |"Am" eaa eaa |"D" baf "G"g2g |
"Am" eaa aga |"G" bab ged |"Em" ede  ged|"G" BAG "Am" A3  :|


